X:18
T:Bidh Eoin
R:highland
H:also in Ador, #20
H:Also as a strathspey
D:Desi Wilkinson: The Three Piece Flute
Z:id:hn-hf-18
M:C|
L:1/8
K:Bm
dcBA F2EF | A2AB c<AAc | dcBA F2E2 | fedc d<BBc :|
|: d2df e2ef | d2df ecA2 | dcdf e2de | fedc d<BBc:|

